communes/4041.svg

<?xml version="1.0" encoding="UTF-8"?>
<!DOCTYPE svg  PUBLIC '-//W3C//DTD SVG 1.1//EN'  'http://www.w3.org/Graphics/SVG/1.1/DTD/svg11.dtd'>
<svg width="520" height="585" version="1.1" viewBox="0 0 100 112.5" xmlns="http://www.w3.org/2000/svg">
<title>Wappen von Stetten</title>
<desc>Wappen der Schweizer Gemeinde Stetten, Kanton Aargau</desc>
<path d="m1 1h98v61.5a49 49 0 0 1-98 0z" fill="#f00000" stroke="#000" stroke-width="2"/>
<path d="m55.5 15c-1 2-1 4-1 6v12h10.5c2 0 4 0 6-1v9.5c-2-1-4-1-6-1h-10.5v12h18.5c2 0 4 0 6-1v9.5c-2-1-4-1-6-1h-18.5v27c0 10 4 13 5.8 14.5-3.3 0-5.3-1-7.3-2.5-0.5 3-1.5 5.5-3 7.5-1.5-2-2.5-4.5-3-7.5-2 1.5-4 2.5-7.3 2.5 1.8-1.5 5.8-4.5 5.8-14.5v-27h-18.5c-2 0-4 0-6 1v-9.5c2 1 4 1 6 1h18.5v-12h-10.5c-2 0-4 0-6 1v-9.5c2 1 4 1 6 1h10.5v-12c0-2 0-4-1-6zm-49.1 0h9.3l2.8-8.8 2.9 8.8h9.3l-7.5 5.5 2.8 8.8-7.5-5.5-7.5 5.5 2.8-8.8zm63 0h9.3l2.8-8.8 2.9 8.8h9.3l-7.5 5.5 2.8 8.8-7.5-5.5-7.5 5.5 2.8-8.8z" fill="#fff" stroke="#000"/>
</svg>

<?xml version="1.0" encoding="utf-8" standalone="no"?>
<!DOCTYPE svg PUBLIC "-//W3C//DTD SVG 1.1//EN" "http://www.w3.org/Graphics/SVG/1.1/DTD/svg11.dtd">
<svg version="1.1"
   xmlns="http://www.w3.org/2000/svg"
   width="520" height="585" viewBox="0 0 100 112.5">
  <title>Wappen von Stetten</title>
  <desc>Wappen der Schweizer Gemeinde Stetten, Kanton Aargau</desc>
  <path d="M 1,1 H 99 V 62.5 A 49 49 0 0 1 1,62.5 z" stroke="black" stroke-width="2" fill="#f00000" />
  <path d="M 55.5,15 c -1,2 -1,4 -1,6 V 33 H 65 c 2,0 4,0 6,-1 V 41.5 c -2,-1 -4,-1 -6,-1 H 54.5 V 52.5 H 73 c 2,0 4,0 6,-1 V 61 c -2,-1 -4,-1 -6,-1 H 54.5 V 87 c 0,10 4,13 5.8,14.5 -3.3,0 -5.3,-1 -7.3,-2.5 -0.5,3 -1.5,5.5 -3,7.5 -1.5,-2 -2.5,-4.5 -3,-7.5 -2,1.5 -4,2.5 -7.3,2.5 1.8,-1.5 5.8,-4.5 5.8,-14.5 V 60 H 27 c -2,0 -4,0 -6,1 V 51.5 c 2,1 4,1 6,1 H 45.5 V 40.5 H 35 c -2,0 -4,0 -6,1 V 32 c 2,1 4,1 6,1 H 45.5 V 21 c 0,-2 0,-4 -1,-6 z M 6.4,15 l 9.3,0 2.8,-8.8 2.9,8.8 9.3,0 -7.5,5.5 2.8,8.8 -7.5,-5.5 -7.5,5.5 2.8,-8.8 z M 69.4,15 l 9.3,0 2.8,-8.8 2.9,8.8 9.3,0 -7.5,5.5 2.8,8.8 -7.5,-5.5 -7.5,5.5 2.8,-8.8 z" stroke="black" stroke-width="1" fill="white" />
</svg>
